X:1
T: A Lovely Madness
C: \251Beoga
R: reel
M: C|
L: 1/8
K: Amin
"Am"E2 (3EEE "Dm"DEFD | "Am"EDCE "Dm"DCB,C | "Am"A,E (3EEE "Dm"DEFD | "Em"EAA^G AEAB |
"Am"c3 A "Am/C#"BAGB | "Am/D"AE (3EEE "Dm/D#"FD (3DDD | "Em"DEEF EDB,D |1 "Am/E-G"C2B,C "Am"A,4 :|\
	[2 "Am/E-G"C2B,C "G7"A,3 B, ||
[|:"C"C2 EC GCEC | "Dm"D2 FD ADFD | "C/E"E2 GE cEGE | "F"F2 AF dFAF | "Am"e2-ed "Am/G"cBAG |
"Am/F"AE (3EEE "Dm"FD (3DDD | "Em"DEEF EDB,D-  |1 "Em/G"DCB,C "G7"A,3 B, :|2 "Em/G"-DCB,C "A"A,4 |]
